static/fa/svgs/regular/map.svg

<svg xmlns="http://www.w3.org/2000/svg" viewBox="0 0 576 512"><!--! Font Awesome Free 6.1.1 by @fontawesome - https://fontawesome.com License - https://fontawesome.com/license/free (Icons: CC BY 4.0, Fonts: SIL OFL 1.1, Code: MIT License) Copyright 2022 Fonticons, Inc.--><path d="M565.6 36.24C572.1 40.72 576 48.11 576 56v336c0 9.1-6.2 18.9-15.5 22.4l-168 64c-5.1 2-10.8 2.1-16.1.4l-183.9-61.3-159.96 60.9c-7.37 2.8-15.66 1.8-22.16-2.6A24.091 24.091 0 0 1 0 456V120c0-10 6.15-18.9 15.46-22.43l168.04-64c5.1-1.97 10.8-2.09 16.1-.34l183.9 61.29 160-60.95c7.3-2.81 15.6-1.81 22.1 2.67zM48 421.2l120-45.7V90.83L48 136.5v284.7zm312-283.9-144-48v285.4l144 48V137.3zm48 283.9 120-45.7V90.83L408 136.5v284.7z"/></svg>

<svg xmlns="http://www.w3.org/2000/svg" viewBox="0 0 576 512"><!--! Font Awesome Free 6.1.1 by @fontawesome - https://fontawesome.com License - https://fontawesome.com/license/free (Icons: CC BY 4.0, Fonts: SIL OFL 1.1, Code: MIT License) Copyright 2022 Fonticons, Inc. --><path d="M565.6 36.24C572.1 40.72 576 48.11 576 56V392C576 401.1 569.8 410.9 560.5 414.4L392.5 478.4C387.4 480.4 381.7 480.5 376.4 478.8L192.5 417.5L32.54 478.4C25.17 481.2 16.88 480.2 10.38 475.8C3.882 471.3 0 463.9 0 456V120C0 110 6.15 101.1 15.46 97.57L183.5 33.57C188.6 31.6 194.3 31.48 199.6 33.23L383.5 94.52L543.5 33.57C550.8 30.76 559.1 31.76 565.6 36.24H565.6zM48 421.2L168 375.5V90.83L48 136.5V421.2zM360 137.3L216 89.3V374.7L360 422.7V137.3zM408 421.2L528 375.5V90.83L408 136.5V421.2z"/></svg>
